!!!COM: Music21
!!!OTL: polka_Buttered-Peas
!!!OMV: polka_Buttered-Peas
**kern
*clefG2
*k[f#c#g#]
*A:
*M2/4
=1
16cc#LL
16ee
16ee
16cc#JJ
=
16ddLL
16ff#J
8ff#J
4ryy
=
16cc#LL
16ee
16ee
16cc#JJ
4ryy
=
16ddLL
16bJ
8bJ
4ryy
=
16cc#LL
16ee
16cc#
16eeJJ
4ryy
=
16ddLL
16ff#
16dd
16ff#JJ
4ryy
=
16cc#LL
16ee
32bL
32cc#J
16ddJJ
4ryy
!!linebreak:original
=
16cc#LL
16aJ
8aJ
4ryy
=||
*M2/4
16cc#LL
16ee
16ee
16cc#JJ
=
16ddLL
16ff#J
8ff#J
4ryy
=
16cc#LL
16ee
16ee
16cc#JJ
4ryy
=
16ddLL
16bJ
8bJ
4ryy
=
16cc#LL
16ee
16cc#
16eeJJ
4ryy
=
16ddLL
16ff#
16dd
16ff#JJ
4ryy
!!linebreak:original
=
16cc#LL
16ee
32bL
32cc#J
16ddJJ
4ryy
=
16cc#LL
16aJ
8aJ
4ryy
=||
16aLL
16cc#
16ee
16aaJJ
4ryy
=
32aaLLL
32gg#
32ff#
32gg#J
16aa
16ff#JJ
4ryy
=
16eeLL
16cc#
16cc#
16aJJ
4ryy
=
16ddLL
16b
16b
16cc#JJ
4ryy
=
16aLL
16cc#
16ee
16aaJJ
4ryy
!!linebreak:original
=
16aaLL
16gg#
16aa
16ff#JJ
4ryy
=
16eeLL
16cc#
32ddL
32cc#J
16bJJ
4ryy
=
16cc#LL
16aJ
8aJ
4ryy
=||
16aLL
16cc#
16ee
16aaJJ
4ryy
=
32aaLLL
32gg#
32ff#
32gg#J
16aa
16ff#JJ
4ryy
=
16eeLL
16cc#
16cc#
16aJJ
4ryy
=
16ddLL
16b
16b
16cc#JJ
4ryy
!!linebreak:original
=
16aLL
16cc#
16ee
16aaJJ
4ryy
=
16aaLL
16gg#
16aa
16ff#JJ
4ryy
=
16eeLL
16cc#
32ddL
32cc#J
16bJJ
4ryy
=
16cc#LL
16aJ
8aJ
4ryy
=||
*-
